X:6512
T:Grannas bastu (our neighbor's sauna shed)
R:Tv\aa{}taktspolska (polska in 2/4-time)
Q:1/4=110
O:Finland
M:2/4
L:1/16
A:Jeppo, \"Osterbotten
K:G
A2A2 ABcd|e2e2 c3e|g2fg a2g2|1 e4 c3B:|2 e4 c3e||
|:g2g2 f2ed|e2c2 A3B|cBcd c2B2|1 A4A3e:|2 A4A3 z|]
